svg/awwesome.svg

<svg xmlns="http://www.w3.org/2000/svg" width="191" height="191" fill="none" viewBox="0 0 191 191"><g clip-path="url(#clip0_19_9)"><circle cx="96.152" cy="95.166" r="95.166" fill="#1E40AF"/><path fill="#fff" fill-rule="evenodd" d="M108.775 53.2268C119.363 47.8451 131.073 45.0442 142.951 45.0528C144.801 45.0541 146.301 46.5537 146.302 48.4041C146.312 60.282 143.511 71.9937 138.129 82.5824C133.074 92.5291 125.875 101.22 117.063 108.034C117.727 112.076 117.614 116.215 116.722 120.227C115.669 124.966 113.557 129.405 110.545 133.211C107.532 137.018 103.698 140.094 99.3276 142.208C94.9577 144.322 90.1661 145.42 85.3116 145.419C83.4594 145.419 81.9581 143.918 81.9581 142.065V122.09C81.8816 122.039 81.807 121.985 81.7344 121.927C77.1754 118.312 73.0477 114.184 69.4326 109.625C69.3738 109.551 69.3184 109.475 69.2666 109.397H49.2896C47.4374 109.397 45.9359 107.896 45.9355 106.043C45.9347 101.188 47.0326 96.3961 49.1471 92.0257C51.2616 87.6554 54.3378 83.8202 58.1452 80.8077C61.9526 77.7953 66.3924 75.6835 71.132 74.6309C75.1444 73.7397 79.2835 73.6271 83.3258 74.2915C90.1395 65.4799 98.8294 58.2821 108.775 53.2268ZM78.9391 80.5871C76.8117 80.5176 74.6773 80.7149 72.5864 81.1793C68.8351 82.0125 65.321 83.6839 62.3075 86.0683C59.2939 88.4527 56.8591 91.4881 55.1855 94.9473C54.0016 97.3942 53.2203 100.008 52.8647 102.689H69.6545C71.5458 94.8657 74.684 87.4039 78.9391 80.5871ZM75.6457 106.638C78.3816 109.936 81.4183 112.973 84.7166 115.709C94.3511 113.742 103.443 109.718 111.382 103.912L111.387 103.908C120.132 97.5376 127.247 89.1886 132.149 79.5431C136.532 70.9201 139.035 61.4797 139.511 51.8443C129.876 52.3204 120.437 54.8241 111.815 59.2067C102.17 64.109 93.8216 71.2231 87.4515 79.9681L87.4477 79.9734C81.6422 87.9103 77.614 97.0056 75.6457 106.638ZM88.6661 121.701C96.4895 119.811 103.95 116.675 110.767 112.421C110.836 114.548 110.638 116.681 110.174 118.771C109.34 122.522 107.669 126.036 105.284 129.049C102.9 132.062 99.8649 134.496 96.4062 136.17C93.9597 137.353 91.3461 138.134 88.6661 138.49V121.701ZM110.528 76.9765C109.507 76.9765 108.527 77.3822 107.805 78.1043C107.083 78.8264 106.677 79.8058 106.677 80.827C106.677 81.8483 107.083 82.8276 107.805 83.5498C108.527 84.2719 109.507 84.6775 110.528 84.6775C111.549 84.6775 112.528 84.2719 113.251 83.5498C113.973 82.8276 114.378 81.8483 114.378 80.827C114.378 79.8058 113.973 78.8264 113.251 78.1043C112.528 77.3822 111.549 76.9765 110.528 76.9765ZM103.062 73.361C105.042 71.3809 107.728 70.2685 110.528 70.2685C113.328 70.2685 116.014 71.3809 117.994 73.361C119.974 75.3411 121.086 78.0267 121.086 80.827C121.086 83.6273 119.974 86.3129 117.994 88.293C116.014 90.2731 113.328 91.3856 110.528 91.3856C107.728 91.3856 105.042 90.2732 103.062 88.293C101.082 86.3129 99.9693 83.6273 99.9693 80.827C99.9693 78.0268 101.082 75.3412 103.062 73.361ZM64.2815 115.521C65.3868 117.007 65.0779 119.108 63.5914 120.213C60.923 122.198 58.8483 124.874 57.592 127.953C56.662 130.232 56.2067 132.668 56.2433 135.111C58.6872 135.147 61.1227 134.692 63.4019 133.761C66.4808 132.504 69.1572 130.429 71.141 127.759C72.2459 126.273 74.3469 125.963 75.8336 127.068C77.3203 128.173 77.6298 130.274 76.5248 131.761C73.8109 135.412 70.1495 138.252 65.9374 139.971C61.7252 141.691 57.1228 142.226 52.6287 141.517C51.1919 141.29 50.065 140.163 49.8382 138.727C49.1288 134.233 49.6624 129.631 51.3811 125.419C53.0998 121.207 55.9381 117.545 59.5887 114.831C61.0751 113.725 63.1761 114.034 64.2815 115.521Z" clip-rule="evenodd"/></g><defs><clipPath id="clip0_19_9"><rect width="190.649" height="190.649" fill="#fff"/></clipPath></defs></svg>

<svg xmlns="http://www.w3.org/2000/svg" width="191" height="191" fill="none"><g clip-path="url(#a)"><circle cx="96.152" cy="95.166" r="95.166" fill="#1E40AF"/><path fill="#fff" fill-rule="evenodd" d="M108.775 53.227a75.3 75.3 0 0 1 34.176-8.174c1.85.001 3.35 1.5 3.351 3.351a75.29 75.29 0 0 1-29.239 59.63 32.16 32.16 0 0 1-6.518 25.177 32.17 32.17 0 0 1-25.233 12.208 3.353 3.353 0 0 1-3.354-3.354V122.09a3 3 0 0 1-.224-.163 75.8 75.8 0 0 1-12.301-12.302 3 3 0 0 1-.166-.228H49.29a3.354 3.354 0 0 1-3.355-3.354 32.172 32.172 0 0 1 37.39-31.752 75.3 75.3 0 0 1 25.45-21.064m-29.836 27.36a25.464 25.464 0 0 0-26.074 22.102h16.79a75 75 0 0 1 9.284-22.102m-3.293 26.051a69 69 0 0 0 9.07 9.071 68.3 68.3 0 0 0 26.666-11.797l.005-.004a68.6 68.6 0 0 0 28.124-52.064 68.6 68.6 0 0 0-52.06 28.124l-.003.005a68.35 68.35 0 0 0-11.802 26.665m13.02 15.063a75 75 0 0 0 22.101-9.28 25.463 25.463 0 0 1-22.1 26.069zm21.862-44.724a3.851 3.851 0 1 0 0 7.702 3.851 3.851 0 0 0 0-7.703m-7.466-3.616a10.559 10.559 0 1 1 14.932 14.933 10.559 10.559 0 0 1-14.932-14.933m-38.78 42.16a3.353 3.353 0 0 1-.69 4.692 18.23 18.23 0 0 0-7.349 14.898 18.22 18.22 0 0 0 14.898-7.352 3.355 3.355 0 0 1 5.384 4.002 24.93 24.93 0 0 1-23.896 9.756 3.355 3.355 0 0 1-2.79-2.79 24.93 24.93 0 0 1 9.75-23.896 3.353 3.353 0 0 1 4.692.69" clip-rule="evenodd"/></g><defs><clipPath id="a"><path fill="#fff" d="M0 0h190.649v190.649H0z"/></clipPath></defs></svg>
